X:1
T:D Major Samuel Babcock, 1795
T:William Cowper, 1759        77. 77.
T:Caledonia
T:Transcribed from The Middlesex Harmony, 1795.
%%score [ 1 2 3 ]
L:1/8
Q:1/4=130
M:2/4
K:D
V:1 treble nm="Tr." snm="Tr."
V:2 treble-8 nm="T." snm="T."
V:3 bass nm="B." snm="B."
V:1
 d2 A2 | F2 F2 | %2
"^eve  –  ry       day,                                       eve  –  ry         day,                                    turned away,""^joy –  ful   sound,                                    joy – ful        sound,                                roll it round!" AG FE | %3
 F4 | d2 d2 | e2 e2 | ed cB | c4 | A2 A2 | c2 c2 | d2 d2 | d4 | d2 B2 | G2 E2 | AG FE | F4- | %16
 F2 z2 | A2 A2 | A2 A2 | A2 A2 | A4 | d2 B2 | G4 | AG FE | F2 D2 | AG FE | F4- | F4 | z4 |: F3 G | %30
 A2 A2 | B2 AG | F4 | A2 A2 | A2 A2 | B2 AG | F4 | B2 B2 | B4 | A2 A2 | F2 D2 | %41
"^eve   –   ry         day,""^joy   –   ful      sound," AG FE | F4 | F2 F2 | A2 A2 | %45
"^eve  –  ry           day.                                           turned    a   –   way,""^joy — ful       sound.                                       roll         it      round!" AG FE | %46
 F4 | F2 F2 | A2 A2 | AG FE | F4 | d2 B2 | B4 | AG FE | F2 D2 | AG FE | F4- | F4 :| %58
V:2
"^1.  I  will  praise thee                                   I  will praise thee                                     Now thine anger’s                           I   will praise thee eve  – ry""^2.  Raise   again  the                                   Raise   again the                                      Let   the   nations                            Raise  again   the   joy – ful" A2 A2 | %1
 d2 d2 | fe dc | d4 | B2 B2 | B2 B2 | cB AG | A4 | F2 F2 | A2 A2 | B2 B2 | B4 | B2 d2 | e2 e2 | %14
 fe dc | %15
"^day. ___     Now thine anger's turned away,    eve–ry   day,            I          will    praise thee  eve –  ry         day. ____               Com – for –  ta –ble""^sound. __     Let   the    nations roll it round!  joyful   sound,         Raise   a   –   gain  the    joy  –  ful    sound. ___                Zi  –  on     shout, for" d4- | %16
 d2 z2 | A2 A2 | A2 A2 | A2 A2 | A4 | B2 d2 | e4 | fe dc | d2 d2 | fe dc | d4- | d4 | z4 |: d2 d2 | %30
 d2 d2 | %31
"^thoughts a – rise    From the bleeding   sac – ri    –   fice.      Eve – ry   day,       I            will    praise  thee                                           I    will  praise thee""^this     is       he,      God  the  Sa – vior   dwells  in    thee.     Joy – ful sound,  Raise    a    –   gain   the                                           Raise   a–gain   the" B2 c2 | %32
 d4 | d2 d2 | d2 d2 | B2 c2 | d4 | B2 d2 | e4 | fe dc | d2 d2 | fe dc | d4 | A2 A2 | c2 c2 | %45
 fe dc | d4 | %47
"^Now thine anger's                                            Eve – ry    day,        I           will       praise thee  eve  –   ry           day. _____""^Let  the    nations                                             Joy—ful sound,   Raise    a   –    gain     the    joy  –   ful      sound. ____" A2 A2 | %48
 c2 c2 | fe dc | d4 | B2 d2 | e4 | fe dc | d2 d2 | fe dc | d4- | d4 :| %58
V:3
 D,2 D,2 | D,2 D,2 | z4 | z4 | G,2 G,2 | E,2 E,2 | z4 | z4 | %8
"^I  will  praise thee                          eve–ry   day,           I         will""^Raise  again   the                          joy–ful sound,     the      joy  –" D,2 D,2 | %9
 A,2 A,2 | z4 | z4 | B,2 B,2 | E,4 | A,2 A,2 |"^praise thee.""^– ful sound." D,4 | D,4 | A,2 A,2 | %18
 A,2 A,2 | A,2 A,2 | A,4 | %21
"^I    will  praise thee  eve – ry         day. _____________________""^Raise  again   the   joy—ful        sound. ___________________" B,2 B,2 | %22
 G,2 E,2 | A,2 A,2 | D,4- | D,4- | D,4- | D,4 | z4 |: D2 D2 | D2 D2 | B,2 C2 | D4 | D,2 D,2 | %34
 D,2 D,2 | G,,2 A,,2 | D,4 | B,2 B,2 | E,4 | A,2 A,2 | D,2 D,2 | z4 | z4 | D,2 D,2 | A,2 A,2 | z4 | %46
 z4 | D,2 D,2 | A,2 A,2 | z4 | z4 | B,2 B,2 | E,4 | A,2 A,2 | D,2 D,2 | A,,2 A,,2 | D,4- | D,4 :| %58

